X: 255
T: Ben Melâmet Hırkasını
C: ?
O: Turkey
F: http://compmusic.upf.edu/node/140
N: ussak--nefes--sofyan--ben_melamet--
N: makam= ussak
N: form= nefes
N: usul= sofyan = 4/4
M: 4/4
L: 1/16
K: C _2/4B   
Q: 1/4=108
%%MIDI tuningsystem comma53
e4 d2ee e2ee e2ed  | z2ge e2ed dccB d2dd  | 
w:  ARANAĞME  |   | 
dcBA B2cc cBBc BcA2  | z2G2 G2BA A4 ABcd  | 
w:   |   | 
e4 d2ee e2ee e2ed  | z2ge e2ed dccB d2dd  | 
w:  ARANAĞME  |   | 
dcBA B2cc cBBc BcA2  | z2G2 G2BA A4 AG^3/4FG  | 
w:   |   | 
A4 G2A2 A4 A2A2  | z2BA B2c2 c2BA G2AB  | \
w:  *  Ben  me lâ met   |  hır *  *  ka sı *  *  nı   | 
c2c2 B2c2 c4 B2A2  | 
w:  *  *  ken dim  giy dim   | 
z2G4BA A2A2 AG^3/4FG  | A4 G2A2 A4 A2A2  | \
w:  ki me  *  ne   *  SAZ  |  *  Ben  me lâ met   | 
z2BA B2c2 c2BA G2AB  | 
w:  hır *  *  ka sı *  *  nı   | 
c2c2 B2c2 c4 B2A2  | z2G4BA A2A2 ABcd  | \
w:  *  *  ken dim  giy dim   |  ki me  *  ne   *  SAZ  | 
e4 d2e2 e2e2 e2d2  | 
w:  *  A r(ı)  na *  mus   | 
z2ge e2ed dccB d2d2  | dcBA B2c2 c4 B2A2  | 
w:  şi *  *  şe *  si *  *  *  ni   |  *  *  *  *  ta şa  çal dım   | 
z2G2 G2BA A2A2 d2d2  | dcBA B2c2 c2BA G2AB  | 
w:  ki *  me  *  ne  *  ah    |  *  *  *  *  Hay dar  Hay *  *  dar   | 
c2c2 B2c2 cBBc B2A2  | z2G4BA A2A2 A2A2  | \
w:  *  *  ta şa  çal *  *  *  dım   |  ki me  *  ne    | 
e4 d2ee e2ee e2ed  | 
w:  ARANAĞME  | 
z2ge e2ed dccB d2dd  | dcBA B2cc cBBc BcA2  | 
w:   |   | 
z2G2 G2BA A4 ABcd  | e4 d2ee e2ee e2ed  | \
w:   |  ARANAĞME  | 
z2ge e2ed dccB d2dd  | 
w:   | 
dcBA B2cc cBBc BcA2  | z2G2 G2BA A4 AG^3/4FG  | 
w:   |   | 
A4 G2A2 A4 A2A2  | z2BA B2c2 c2BA G2AB  | \
w:  *  Ben  me lâ met   |  hır *  *  ka sı *  *  nı   | 
c2c2 B2c2 c4 B2A2  | 
w:  *  *  ken dim  giy dim   | 
z2G4BA A2A2 AG^3/4FG  | A4 G2A2 A4 A2A2  | \
w:  ki me  *  ne   *  SAZ  |  *  Ben  me lâ met   | 
z2BA B2c2 c2BA G2AB  | 
w:  hır *  *  ka sı *  *  nı   | 
c2c2 B2c2 c4 B2A2  | z2G4BA A2A2 ABcd  | \
w:  *  *  ken dim  giy dim   |  ki me  *  ne   *  SAZ  | 
e4 d2e2 e2e2 e2d2  | 
w:  *  A r(ı)  na *  mus   | 
z2ge e2ed dccB d2d2  | dcBA B2c2 c4 B2A2  | 
w:  şi *  *  şe *  si *  *  *  ni   |  *  *  *  *  ta şa  çal dım   | 
z2G2 G2BA A2A2 d2d2  | dcBA B2c2 c2BA G2AB  | 
w:  ki *  me  *  ne  *  ah    |  *  *  *  *  Hay dar  Hay *  *  dar   | 
c2c2 B2c2 cBBc B2A2  | z2G4BA A2A2 A2A2  | |


